X:16
T:Alsops Fancy. Le4.016
B:L.Leadley MS#4 c1850
Z:Village Music Project, 2016 Steve Mansfield
M:6/8
L:1/8
Q:3/8=90
N:* Final bar of both parts d2 in Mss
N:** Fermata is over repeat bar in Mss = means Fin
N:
K:Ddor
a | afd d2f | ecA A2A | Bcd g2f | f3 e2a |
afd d2f | ecA A2A | Bgf edc | "*"d3 "**"!fine!d2 :|
|: d | dff faa | gee e2d | cee egg | fdd d2a |
aff f2a | gee e2g | faf gec | "*"d3 d2 :|

